X:22
T:Anouman
C:Django Reinhardt
N:Recorded 1953/Decca The alto sax took the melody parts and Django Improvised on the bridge
L:1/8
Q:1/4=60
M:4/4
K:F
|: "Dm"A4 "Dm7/C"z=B/c/ "Dm6/Bnat"d/e/f/g/ | "Gm6"a/c'/a/d/ c'4 b2 | "Dm"a4 "Dm7/C"a/c/d/e/ "Dm6/Bnat"f/g/a/b/ | 
"Cm7"d'/b/g/_e/ d'4 _d'2 | "Bbmaj7"c'/a/f/d/ c'4 a2 | "Em7"=b2 z/g/e/d/ "A7(b9#5)"_d2 _b2 | 
"Dm"a4 "Dm7/C"A=B "Dm6/Bnat"_d/=d/e/f/ | "Gm6"g3g "A7"gf _aB | "Dm"a8 | "Dm"z8 | 
"Adlib Solo""Am7"z8 | "No Chords"z8 | "Gm7"z8 | "Gm7"z8 | "Bm7"z8 | "No Chords"z8 | 
"A7"z8 | "Em7b5"z8 :| "Dm"A4 "Dm7/C"z=B/c/ "Dm6/Bnat"d/e/f/g/ | "Gm6"a/=b/a/d/ c'4 _b2 | 
"Dm"a4 "Dm7/C"z/_d/=d/e/ "Dm6/Bnat"f/g/a/b/ | "Cm7"d'/b/g/_e/ d'4 _d'2 | "Bbmaj7"c'/a/f/d/ c'4 b2 | 
"Em7"=b2 z/g/e/d/ "A7(b9#5)"_d2 _b2 | "Dm"a8 | "Dm"z8 | 


